X:1
T:Title
%%score 1 2
L:1/8
M:6/2
K:C
V:1 treble nm="Part_1"
V:2 bass nm="Part_2"
V:1
 E8 G8 F8 | E12 F4 E8 | D12 C4 B,8 | C8 C8 z8 | F8 A8 G8 | F12 G4 F8 | E12 D4 ^C8 | D8 D8 D8 | %8
 B,8 A,8 G4 F4 | E8 C8 E8 | ^C8 A,8 A4 G4 | ^F8 D8 z8 | A,8 A,8 A,8 | B,8 A,8 B,8 | ^C8 B,8 C8 | %15
 D8 ^C8 D8 | E8 D8 E8 | F12 E4 G8 | F8 E16 |[M:4/4] D8 | z2 G4 D2 | D8 | C8 | z8 | z8 | z8 | z8 | %27
 z8 | z4 E4- | E4 ^C4 | z4 A4- | A4 ^F4 | z DE^F G2 GD | E2 E2 z E^FG | A2 AE ^F2 FF | %35
 =BAB^F GFAG | ^F4 E4 | z B,CD E2 EB, | ^C2 C2 z CDE | ^F F2 ^C DCED | ^C4 B,4 | z ^FGA B2 BF | %42
 G^FAG F4 | E8 | z8 | z8 | z8 | z8 | z8 | z2 EE EEED | EE^FG AA D/E/F/D/ | E/F/G/F/ E2 D4 | %52
[M:6/2] z8 A,8 A,8 | B,16 B,8 | G8 F8 G8 | E8 D8 E8 | ^C8 C8 A4 E4 | ^F8 G8 A8 | A16 ^G8 | A24 | %60
 A,8 B,8 ^C8 | D8 ^C8 D8 | B,8 B,8 G4 D4 | E8 E8 F8 | F16 E8 | F16 D8 | D16 ^C8 | D16 D8 | %68
 D16 ^C8 | D24 |[M:4/4] z8 | z8 | z8 | z8 | ^F8 | F4 ^FF/F/ FF | G2 G2 z ^GGG | AAEE F4- | %78
 F2 ED D4 | C4 z CEC | GF/E/ DE/F/ ED/C/ B,C/D/ | CD/E/ DC B,2 A,2 | %82
 A,/B,/C/D/ E/F/G/E/ AG/F/ EF/G/ | FG/A/ GF E2 D2 | z4 G4- | G2 D/E/F/E/ D4 | C8- | C8 |] %88
V:2
 C,16 D,8 | E,24 | F,8 G,16 | C,24 | D,16 E,8 | F,24 | G,8 A,16 | D,24 | G,,24 | C,24 | A,,24 | %11
 D,24 | D,24 | G,,24 | A,,24 | B,,24 | ^C,24 | D,16 G,,8 | G,,8 A,,16 |[M:4/4] D,8 | E,4 F,4 | %21
 G,8 | C,8 | C2 B,A, G,2 E,2 | F,G,A,F, G,2 C,2 | F,2 E,D, C,2 A,,2 | G,,2 F,,E,, G,,4 | C,8 | %28
 C,8 | A,,8 | D,8 | D,8 | D,4 B,,4 | C,8 | A,,4 D,4 | B,,4 E,2 A,,2 | B,,4 E,4 | E,4 E,4 | A,,8 | %39
 A,,4 B,,2 E,2 | ^F,4 B,,4 | B,,8 | E,2 A,,2 B,,4 | E,8 | E,4 ^F,2 F,2 | ^G,3 G, A,2 E,2 | %46
 ^C,3 C, D,3 D, | E,8 | A,,8 | A,4 G,2 F,2 | E,2 D,2 ^C,2 D,2 | G,,2 A,,2 D,4 |[M:6/2] D,24 | %53
 G,,24 | G,,24 | C,24 | A,,24 | D,8 E,8 F,8 | E,24 | A,,8 B,,8 ^C,8 | D,16 C,8 | B,,24 | G,,24 | %63
 C,16 A,,8 | _B,,16 C,8 | F,,16 _B,,8 | G,,16 A,,8 | D,16 _B,,8 | G,,16 A,,8 | D,24 | %70
[M:4/4] D,3 D, C,2 A,,2 | _B,,2 G,,2 A,,3 G,, | F,,2 D,,2 A,,4 | D,,8 | D,8 | D,8 | G,,4 E,,4 | %77
 A,,4 F,,4 | G,,8 | C,4 C,4 | B,,4 C,2 ^G,,2 | A,,2 D,,2 E,,2 A,,2 | F,2 E,D, ^C,4 | %83
 D,2 G,,2 A,,2 D,2 | B,,4 B,,4 | C,2 F,,2 G,,4 | C,8- | C,8 |] %88

